X: 1
T: The Chickens Clicking
S: Tola Custy &amp; Cyril O'Donoghue - Setting Free (concertina)
M: 4/4
L: 1/8
R: reel
K: Dmin
DEFG ADDA|BAGB ADDC|DEFG AD~D2|EDCD EGGA|
DEFG AD~D2|BAGB ADED|C3D CEGA|GECE D4:|
|:d3e dA~A2|BAGB AD~D2|d3e dA~A2|BAGB A4|
d3e f3e|dcAG ADED|C3D CEGA|GECE D4:|
